X:39
T:Campbells Are Coming,The. TLY.039
M:6/8
L:1/8
Q:3/8=120
S:Wm.Tildesley,Swinton,Lancs.1860s.
R:.Jig
O:England.
A:Lancashire.
N:No keysignature given in original, but probably D. At end it is marked
N:DC â€“ Iâ€™ve used chord notation to cheat
H:1860.
Z:vmp.Taz Tarry.
K:C
G|â€_As Writtenâ€cea gec|[Ge][Ge][Ge] [G2e2] d|cea gec|\
[Ge][Ge][Ge] [G2e2] e|cea gec|!
e2 g (câ€™2dâ€™)|(eâ€™dâ€™)câ€™- c'(ba)| gaf efd:||G|c2c cde| G2G GED|!
c2c cde|A2A A2B|cdc cBA| GAB c2d|edc cBA|gaf â€œD.C.â€efd|]

